X: 123201
T: The FLOWERS OF EDINBURGH
P: Country Dance.
%R: reel
B: James Kerr "Merry Melodies" v.1 p.23 s.2 #1
Z: 2017 John Chambers <jc:trillian.mit.edu>
M: C
L: 1/8
K: G
(uGE) |\
D2DE G2GA | BGBd cBAG |\
FGFE DEFG | AFdF E2(EF) |\
D2DE G2GA | BGBd efge |\
dcBA GFGA | B2G2G2 |]
ud2 |\
g2g2 gbag | f2f2 fagf |\
e2ef (gf)ed | B2e2 e2(ge) |\
dBGB d2d2 | edef g2(fe) |\
dcBA GFGA | B2G2G2 |]

%%sep 1 1 500
%%sep 1 1 500

